src/images/icons/square.svg

<svg xmlns="http://www.w3.org/2000/svg" width="16" height="16" fill="none"><path fill="#00112C" fill-rule="evenodd" d="M1.25 3.5C1.25 2.25736 2.25736 1.25 3.5 1.25H12.5C13.7426 1.25 14.75 2.25736 14.75 3.5V12.5C14.75 13.7426 13.7426 14.75 12.5 14.75H3.5C2.25736 14.75 1.25 13.7426 1.25 12.5V3.5ZM3.5 2.75C3.08579 2.75 2.75 3.08579 2.75 3.5V12.5C2.75 12.9142 3.08579 13.25 3.5 13.25H12.5C12.9142 13.25 13.25 12.9142 13.25 12.5V3.5C13.25 3.08579 12.9142 2.75 12.5 2.75H3.5Z" clip-rule="evenodd"/></svg>

<svg xmlns="http://www.w3.org/2000/svg" fill="none" viewBox="0 0 16 16"><path fill="currentColor" fill-rule="evenodd" d="M1.25 3.5c0-1.24 1-2.25 2.25-2.25h9c1.24 0 2.25 1 2.25 2.25v9c0 1.24-1 2.25-2.25 2.25h-9c-1.24 0-2.25-1-2.25-2.25zm2.25-.75a.75.75 0 0 0-.75.75v9c0 .41.34.75.75.75h9c.41 0 .75-.34.75-.75v-9a.75.75 0 0 0-.75-.75z" clip-rule="evenodd"/></svg>
